job-listings-with-filtering/img/logo-account.svg

<svg width="88" height="88" viewBox="0 0 88 88" fill="none" xmlns="http://www.w3.org/2000/svg">
<g filter="url(#filter0_i)">
<circle cx="44" cy="44" r="44" fill="#4F1181"/>
</g>
<path fill-rule="evenodd" clip-rule="evenodd" d="M34.8182 47.9999V48C32.546 48 30.8491 46.2841 30.8491 44.0063C30.8491 41.7159 32.546 40 34.8182 40C36.7746 40 38.2899 41.3173 38.5933 43.2481H36.5095C36.2533 42.4671 35.6083 41.9601 34.8227 41.9601C33.7656 41.9601 32.9903 42.8271 32.9903 44.0062C32.9903 45.1807 33.7656 46.0352 34.8227 46.0352C35.651 46.0352 36.3021 45.4847 36.5113 44.6385H38.6147C38.3309 46.6407 36.8065 47.9999 34.8182 47.9999ZM25.2039 47.8073L25.6174 46.5706H28.2634L28.6747 47.8073H30.9394L27.9427 40.1924H25.9324L23 47.8073H25.2039ZM27.7615 44.9289H26.1183L26.9362 42.5693L27.7615 44.9289ZM43.1107 48V47.9999C45.0991 47.9999 46.6234 46.6407 46.9072 44.6385H44.8038C44.5946 45.4847 43.9435 46.0352 43.1152 46.0352C42.0581 46.0352 41.2828 45.1807 41.2828 44.0062C41.2828 42.8271 42.0581 41.9601 43.1152 41.9601C43.9008 41.9601 44.5458 42.4671 44.8021 43.2481H46.8858C46.5824 41.3173 45.0671 40 43.1107 40C40.8385 40 39.1416 41.7159 39.1416 44.0063C39.1416 46.2841 40.8385 48 43.1107 48ZM51.5448 47.9999V48C49.145 48 47.4325 46.3273 47.4325 44C47.4325 41.6727 49.145 40 51.5448 40C53.9385 40 55.6448 41.6664 55.6448 44C55.6448 46.3335 53.9385 47.9999 51.5448 47.9999ZM51.5448 46.048C50.4086 46.0479 49.5739 45.1855 49.5739 44.0001C49.5739 42.8147 50.4086 41.9524 51.5448 41.9524C52.681 41.9524 53.5035 42.8085 53.5035 44.0002C53.5035 45.1918 52.681 46.048 51.5448 46.048ZM63.0657 44.8616C63.0657 46.7351 61.71 47.9999 59.807 47.9999C57.9038 47.9999 56.5481 46.7351 56.5481 44.8616V40.1924H58.65V44.8224C58.65 45.5667 59.1202 46.0476 59.807 46.0476C60.4937 46.0476 60.9638 45.5667 60.9638 44.8224V40.1924H63.0657V44.8616ZM66.3582 47.8073V43.6748L69.3239 47.8073H71.0247V40.1924H69.0318V44.1875L66.1653 40.1924H64.3653V47.8073H66.3582ZM75.9722 42.0814V47.8073H73.9066V42.0814H71.8786V40.1924H78V42.0814H75.9722Z" fill="white"/>
<path fill-rule="evenodd" clip-rule="evenodd" d="M17.4206 47.9532L13.7103 40L10 47.9532H17.4206Z" fill="url(#paint0_linear)"/>
<path fill-rule="evenodd" clip-rule="evenodd" d="M20.9127 47.9532L17.2024 40L13.4921 47.9532H20.9127Z" fill="url(#paint1_linear)"/>
<defs>
<filter id="filter0_i" x="0" y="0" width="88" height="88" filterUnits="userSpaceOnUse" color-interpolation-filters="sRGB">
<feFlood flood-opacity="0" result="BackgroundImageFix"/>
<feBlend mode="normal" in="SourceGraphic" in2="BackgroundImageFix" result="shape"/>
<feColorMatrix in="SourceAlpha" type="matrix" values="0 0 0 0 0 0 0 0 0 0 0 0 0 0 0 0 0 0 127 0" result="hardAlpha"/>
<feOffset/>
<feGaussianBlur stdDeviation="17.5"/>
<feComposite in2="hardAlpha" operator="arithmetic" k2="-1" k3="1"/>
<feColorMatrix type="matrix" values="0 0 0 0 0 0 0 0 0 0 0 0 0 0 0 0 0 0 0.0452633 0"/>
<feBlend mode="normal" in2="shape" result="effect1_innerShadow"/>
</filter>
<linearGradient id="paint0_linear" x1="6.28968" y1="43.9766" x2="14.2238" y2="51.3795" gradientUnits="userSpaceOnUse">
<stop stop-color="#5141E2"/>
<stop offset="1" stop-color="#DE39FF"/>
</linearGradient>
<linearGradient id="paint1_linear" x1="9.78175" y1="43.9766" x2="17.7159" y2="51.3795" gradientUnits="userSpaceOnUse">
<stop stop-color="#5141E2"/>
<stop offset="1" stop-color="#DE39FF" stop-opacity="0.01"/>
</linearGradient>
</defs>
</svg>

<svg width="88" height="88" fill="none" xmlns="http://www.w3.org/2000/svg"><g filter="url(#prefix__a)"><circle cx="44" cy="44" r="44" fill="#4F1181"/></g><path fill-rule="evenodd" clip-rule="evenodd" d="M34.818 48c-2.272 0-3.969-1.716-3.969-3.994 0-2.29 1.697-4.006 3.97-4.006 1.956 0 3.47 1.317 3.774 3.248H36.51c-.256-.78-.9-1.288-1.686-1.288-1.057 0-1.833.867-1.833 2.046 0 1.175.776 2.03 1.833 2.03.828 0 1.48-.551 1.688-1.398h2.104C38.33 46.642 36.806 48 34.818 48zm-9.614-.193.413-1.236h2.646l.412 1.236h2.264l-2.996-7.615h-2.01L23 47.807h2.204zm2.558-2.878h-1.644l.818-2.36.826 2.36zM43.11 48c1.988 0 3.512-1.36 3.796-3.361h-2.103c-.21.846-.86 1.396-1.689 1.396-1.057 0-1.832-.854-1.832-2.029 0-1.179.775-2.046 1.832-2.046.786 0 1.43.507 1.687 1.288h2.084C46.582 41.318 45.067 40 43.11 40c-2.272 0-3.97 1.716-3.97 4.006 0 2.278 1.698 3.994 3.97 3.994zm8.434 0c-2.4 0-4.113-1.673-4.113-4s1.713-4 4.113-4c2.393 0 4.1 1.666 4.1 4s-1.707 4-4.1 4zm0-1.952c-1.136 0-1.971-.863-1.971-2.048s.835-2.048 1.97-2.048c1.137 0 1.96.857 1.96 2.048 0 1.192-.823 2.048-1.96 2.048zm11.52-1.186c0 1.873-1.355 3.138-3.258 3.138s-3.259-1.265-3.259-3.138v-4.67h2.102v4.63c0 .745.47 1.226 1.157 1.226s1.157-.481 1.157-1.226v-4.63h2.102v4.67zm3.293 2.945v-4.132l2.966 4.132h1.7v-7.615h-1.992v3.995l-2.867-3.995h-1.8v7.615h1.993zm9.614-5.726v5.726h-2.065v-5.726h-2.028v-1.889H78v1.89h-2.028z" fill="#fff"/><path fill-rule="evenodd" clip-rule="evenodd" d="M17.42 47.953 13.71 40 10 47.953h7.42z" fill="url(#prefix__b)"/><path fill-rule="evenodd" clip-rule="evenodd" d="M20.913 47.953 17.203 40l-3.71 7.953h7.42z" fill="url(#prefix__c)"/><defs><linearGradient id="prefix__b" x1="6.29" y1="43.977" x2="14.224" y2="51.38" gradientUnits="userSpaceOnUse"><stop stop-color="#5141E2"/><stop offset="1" stop-color="#DE39FF"/></linearGradient><linearGradient id="prefix__c" x1="9.782" y1="43.977" x2="17.716" y2="51.38" gradientUnits="userSpaceOnUse"><stop stop-color="#5141E2"/><stop offset="1" stop-color="#DE39FF" stop-opacity=".01"/></linearGradient><filter id="prefix__a" x="0" y="0" width="88" height="88" filterUnits="userSpaceOnUse" color-interpolation-filters="sRGB"><feFlood flood-opacity="0" result="BackgroundImageFix"/><feBlend in="SourceGraphic" in2="BackgroundImageFix" result="shape"/><feColorMatrix in="SourceAlpha" values="0 0 0 0 0 0 0 0 0 0 0 0 0 0 0 0 0 0 127 0" result="hardAlpha"/><feOffset/><feGaussianBlur stdDeviation="17.5"/><feComposite in2="hardAlpha" operator="arithmetic" k2="-1" k3="1"/><feColorMatrix values="0 0 0 0 0 0 0 0 0 0 0 0 0 0 0 0 0 0 0.0452633 0"/><feBlend in2="shape" result="effect1_innerShadow"/></filter></defs></svg>
